X:129
T: Wiegenlied
N: A0493
O: Europa, Mitteleuropa, Deutschland
N: Calvisius, Harmonia cantionem 1597 und Strassburger Gsgb 1616.
R: Romanze, Ballade, Lied
M: 4/2
L: 1/2
K: F
F | FFAF | ccc
c | dcAB | c2z
c | cccA | ccA
c | BAGG | F2A2 | cAGG | F3

@@@ Tune index: 442
